X: 36477
T: Selby Shipyard
R: jig
M: 6/8
K: Amajor
A/B/|cBA FAF|EFE C2A/B/|cBA FAF|B3B2A/B/|
cBA FAF|EFE C3|EFA BcB|A3A2:|
|:A/B/|cBA dcB|cBA F2A/B/|cBA dcA|B3B2A/B/|
cBA dcB|cBA F3|EFA BcB|A3A2:|

